X: 1627
T: The Little Stack of Barley
M:C|
L:1/8
B:O'Neills 1627
N:"collected by F. O'Neill"
Z:Transcribed by Nick Terhorst, nickte@microsoft.com
K:G
B>d \
| e>fed BedB | AGEG AcBA | GFGA BA (3Bcd | e2A2A2 B>d |
| efgf efdB | AGEG AcBA | G>FGA BdAB | G2GG G2 :|
|: GA \
| Bdef g2fg | agfg eg d2 | gfed B>A (3Bcd | e2 AA A2 Bd |
| (3efg a f g2 fe | d>BAG AcBA | G>FGA BdAB | G2 GG G2 :|


